X:1
T:Title
%%score { ( 1 3 ) | 2 }
L:1/8
M:4/4
K:G
V:1 treble nm="Grand Piano"
V:3 treble 
V:2 bass 
V:1
 z4 z2[Q:1/4=114] [B,D]2 | [DB]2 [DB]2 [CA]2 [DB]2 | [B,G]2 [CE]2 [B,D]2 G2 | AAAA G2 A2 | %4
 [Ec]2 [DB]4 [B,D]2 | [DB]2 [DB]2 [CA]2 [DB]2 |[M:3/4] [B,G]2 [CE]2 [B,D]2 |[M:1/4] [DG]2 | %8
[M:4/4] AAAG [GB]2 [FA]2 |[M:3/4] [CFA]2 [B,G]4 |[M:1/4] B2 |[M:4/4] d6 z2 | d6 z2 | %13
 [FA]2 [FA]2 [GB]2 [Ac]2 |[M:3/4] [Ac]2 B4 |[M:1/4] B2 |[M:4/4] d6 z2 | d6 z2 | %18
 [CFA][CFA][CFA][B,DG] [DGB]2 [CFA]2 |[M:3/4] [CFA]2 [G,B,G]4 |] %20
V:2
 z4 z2 [G,,G,]2 | [G,,G,]2 [G,,G,]2 [G,,G,]2 [G,,G,]2 | [G,,G,]2 [G,,G,]2 [G,,G,]2 [G,B,D]2 | %3
 [D,CD][D,CD][D,CD][D,CD] [D,B,D]2 [D,F,D]2 | [G,,G,]2 [G,,G,]4 [G,,G,]2 | %5
 [G,,G,]2 [G,,G,]2 [G,,G,]2 [G,,G,]2 |[M:3/4] [G,,G,]2 [G,,G,]2 [G,,G,]2 |[M:1/4] [B,,G,]2 | %8
[M:4/4] [D,CD][D,CD][D,CD][D,B,D] [D,D]2 [D,C]2 |[M:3/4] [G,,G,]2 [G,,G,]4 | %10
[M:1/4][K:treble] [G,DG]2 |[M:4/4] [G,B,G]2 [G,B,]2 [G,B,]2 [G,DG]2 | %12
 [G,B,G]2 [G,B,]2 [G,B,]2 [G,DG]2 | [D,D]2 [D,D]2 [D,D]2 [D,D]2 |[M:3/4] [G,D]2[K:treble] [G,DG]4 | %15
[M:1/4] [G,DG]2 |[M:4/4] [G,B,G]2 [G,B,]2 [G,B,]2 [G,DG]2 | [G,B,G]2 [G,B,]2 [G,B,]2 [G,DG]2 | %18
 D,D,D,D, D,2 D,2 |[M:3/4] G,,2 G,,4 |] %20
V:3
 x8 | x8 | x8 | x8 | x8 | x8 |[M:3/4] x6 |[M:1/4] x2 |[M:4/4] x8 |[M:3/4] x6 |[M:1/4] x2 | %11
[M:4/4] z2 G2 G2 B2 | z2 G2 G2 B2 | x8 |[M:3/4] x6 |[M:1/4] x2 |[M:4/4] z2 G2 G2 B2 | z2 G2 G2 B2 | %18
 x8 |[M:3/4] x6 |] %20

